P3
8 8
255
150 170 125 150 170 125 110 110 105 110 110 105 150 170 125 150 170 125 150 170 125 150 170 125
150 170 125 95 80 75 95 80 75 110 110 105 150 170 125 150 170 125 150 170 125 150 170 125
150 170 125 95 80 75 95 80 75 110 110 105 150 170 125 150 170 125 100 85 78 100 85 78
150 170 125 150 170 125 150 170 125 110 110 105 150 170 125 150 170 125 100 85 78 100 85 78
110 110 105 110 110 105 110 110 105 110 110 105 110 110 105 110 110 105 110 110 105 110 110 105
150 170 125 150 170 125 150 170 125 110 110 105 150 170 125 150 170 125 150 170 125 150 170 125
150 170 125 100 85 78 100 85 78 110 110 105 150 170 125 150 170 125 100 85 80 100 85 80
150 170 125 100 85 78 100 85 78 110 110 105 150 170 125 150 170 125 100 85 80 100 85 80
